Yaru++/status/symbolic/microphone-sensitivity-medium-symbolic.svg

<svg height="16" width="16.05" xmlns="http://www.w3.org/2000/svg">
  <g fill="#808080">
    <path d="m15.343 4.926.707.707-.354.354a2.999 2.999 0 0 0 0 4.242l.354.353-.707.707-.354-.353a4 4 0 0 1 0-5.656z"/>
    <path d="m13.221 2.805.707.707-.353.353a5.999 5.999 0 0 0 0 8.485l.353.353-.707.707-.353-.353a7 7 0 0 1 0-9.899z" opacity=".5"/>
    <path d="m4.496 0c-1.409 0-2.496.842-2.496 2.537v5.924c0 1.695 1.087 2.539 2.496 2.539 1.41 0 2.494-.846 2.494-2.54v-5.922c0-1.693-1.085-2.538-2.494-2.538zm0 .998c.505 0 .856.142 1.088.361.232.22.408.545.408 1.178v5.924c0 .633-.176.958-.408 1.178-.232.219-.583.363-1.088.363s-.858-.143-1.09-.361c-.231-.22-.408-.546-.408-1.18v-5.924c0-.634.177-.959.408-1.178.232-.218.585-.36 1.09-.36zm-4.496 6.002v1.5c0 2.321 1.748 4.199 4 4.45v2.073a7.576 7.576 0 0 0 -2 .436v.541h5v-.541a7.856 7.856 0 0 0 -2-.434v-2.075c2.252-.25 4-2.128 4-4.449v-1.501h-1v1.5a3.482 3.482 0 0 1 -3 3.451v-.451h-1v.451a3.482 3.482 0 0 1 -3-3.451v-1.5z"/>
  </g>
</svg>

<svg height="16" width="16.05" xmlns="http://www.w3.org/2000/svg">
    <g color="#000" fill="gray">
        <path d="M15.343 4.926l.707.707-.354.354a3 3 0 000 4.242l.354.353-.707.707-.354-.353a4 4 0 010-5.656z" style="line-height:normal;font-variant-ligatures:normal;font-variant-position:normal;font-variant-caps:normal;font-variant-numeric:normal;font-variant-alternates:normal;font-feature-settings:normal;text-indent:0;text-align:start;text-decoration-line:none;text-decoration-style:solid;text-decoration-color:#000;text-transform:none;text-orientation:mixed;white-space:normal;shape-padding:0;isolation:auto;mix-blend-mode:normal;solid-color:#000;solid-opacity:1" font-weight="400" font-family="sans-serif" overflow="visible"/>
        <path d="M13.221 2.805l.708.707-.354.353a5.999 5.999 0 000 8.485l.354.353-.708.707-.353-.353a7 7 0 010-9.899z" style="line-height:normal;font-variant-ligatures:normal;font-variant-position:normal;font-variant-caps:normal;font-variant-numeric:normal;font-variant-alternates:normal;font-feature-settings:normal;text-indent:0;text-align:start;text-decoration-line:none;text-decoration-style:solid;text-decoration-color:#000;text-transform:none;text-orientation:mixed;white-space:normal;shape-padding:0;isolation:auto;mix-blend-mode:normal;solid-color:#000;solid-opacity:1" font-weight="400" font-family="sans-serif" overflow="visible" opacity=".5"/>
        <path d="M4.496 0C3.087 0 2 .842 2 2.537V8.461C2 10.156 3.087 11 4.496 11c1.41 0 2.494-.846 2.494-2.54V2.538C6.99.845 5.905 0 4.496 0zM0 7v1.5c0 2.321 1.748 4.199 4 4.45v2.073a7.576 7.576 0 00-2 .436V16h5v-.541a7.856 7.856 0 00-2-.434V12.95c2.252-.25 4-2.128 4-4.449V7H8v1.5a3.482 3.482 0 01-3 3.451V11.5H4v.451A3.482 3.482 0 011 8.5V7z" style="marker:none" overflow="visible"/>
    </g>
</svg>
